X:1
T:Bear Away Yankee, Bear Away Boy
M:6/8
L:1/8
K:F
 z4 z A| c2 c ccA| AAB G3| GGG G2 G| GGG G3| A2 c d2 c| B2 c A3| FFF F2 F|\
 FFF F2 c| A2 c eed| ccA G3| GGG G2 G| GGG G3| A2 c d2 c| B2 c A3|\
 FFF F2 F| FFF F2 z|
